Numix-GalliumOS/22/devices/media-flash-cf.svg

<?xml version="1.0" encoding="UTF-8" standalone="no"?>
<svg
   xmlns:dc="http://purl.org/dc/elements/1.1/"
   xmlns:cc="http://creativecommons.org/ns#"
   xmlns:rdf="http://www.w3.org/1999/02/22-rdf-syntax-ns#"
   xmlns:svg="http://www.w3.org/2000/svg"
   xmlns="http://www.w3.org/2000/svg"
   xmlns:sodipodi="http://sodipodi.sourceforge.net/DTD/sodipodi-0.dtd"
   xmlns:inkscape="http://www.inkscape.org/namespaces/inkscape"
   width="22"
   height="22"
   viewBox="0 0 22 22"
   id="svg1035"
   version="1.1"
   inkscape:version="0.91 r"
   sodipodi:docname="media-flash-cf.svg">
  <metadata
     id="metadata1106">
    <rdf:RDF>
      <cc:Work
         rdf:about="">
        <dc:format>image/svg+xml</dc:format>
        <dc:type
           rdf:resource="http://purl.org/dc/dcmitype/StillImage" />
      </cc:Work>
    </rdf:RDF>
  </metadata>
  <sodipodi:namedview
     pagecolor="#ffffff"
     bordercolor="#666666"
     borderopacity="1"
     objecttolerance="10"
     gridtolerance="10"
     guidetolerance="10"
     inkscape:pageopacity="0"
     inkscape:pageshadow="2"
     inkscape:window-width="640"
     inkscape:window-height="480"
     id="namedview1104" />
  <defs
     id="defs1037">
    <linearGradient
       gradientTransform="scale(.45833)"
       id="linear1"
       y1="11"
       y2="42"
       gradientUnits="userSpaceOnUse"
       x2="0">
      <stop
         offset="0"
         style="stop-color:#e5e5e5"
         id="stop1040" />
      <stop
         offset="1"
         style="stop-color:#aaa"
         id="stop1042" />
    </linearGradient>
    <linearGradient
       gradientTransform="matrix(.45833 0 0 .45833 0 .91667)"
       id="linear2"
       y1="3.656"
       y2="21"
       gradientUnits="userSpaceOnUse"
       x2="0">
      <stop
         offset="0"
         style="stop-color:#ecd562"
         id="stop1045" />
      <stop
         offset="1"
         style="stop-color:#df8122"
         id="stop1047" />
    </linearGradient>
    <linearGradient
       gradientTransform="matrix(.03006 0 0 .01509 .13538 12.56181)"
       id="linear0"
       y1="366.648"
       y2="609.505"
       gradientUnits="userSpaceOnUse"
       x2="0">
      <stop
         offset="0"
         style="stop-color:#000;stop-opacity:0"
         id="stop1050" />
      <stop
         offset=".5"
         style="stop-color:#000;stop-opacity:.404"
         id="stop1052" />
      <stop
         offset="1"
         style="stop-color:#000;stop-opacity:0"
         id="stop1054" />
    </linearGradient>
    <radialGradient
       cx="605.714"
       cy="486.648"
       gradientTransform="matrix(.03006 0 0 .01509 .1413 12.56181)"
       id="radial0"
       r="117.143"
       gradientUnits="userSpaceOnUse">
      <stop
         offset="0"
         style="stop-color:#000;stop-opacity:.404"
         id="stop1057" />
      <stop
         offset="1"
         style="stop-color:#000;stop-opacity:0"
         id="stop1059" />
    </radialGradient>
    <radialGradient
       cx="5"
       cy="7.1"
       gradientTransform="matrix(2.28528 .06529 -.04762 1.66667 -6.08829 -.1598)"
       id="radial3"
       r="21"
       gradientUnits="userSpaceOnUse">
      <stop
         offset="0"
         style="stop-color:#fff;stop-opacity:.4"
         id="stop1062" />
      <stop
         offset="1"
         style="stop-color:#fff;stop-opacity:0"
         id="stop1064" />
    </radialGradient>
    <radialGradient
       cx="605.714"
       cy="486.648"
       gradientTransform="matrix(-.03006 0 0 .01509 21.85892 12.56181)"
       id="radial1"
       r="117.143"
       gradientUnits="userSpaceOnUse">
      <stop
         offset="0"
         style="stop-color:#000;stop-opacity:.404"
         id="stop1067" />
      <stop
         offset="1"
         style="stop-color:#000;stop-opacity:0"
         id="stop1069" />
    </radialGradient>
    <radialGradient
       cx="9"
       cy="19.149"
       gradientTransform="matrix(1.90909 0 0 1.40909 -8.18182 -4.98219)"
       id="radial2"
       r="22"
       gradientUnits="userSpaceOnUse">
      <stop
         offset="0"
         style="stop-color:#787878"
         id="stop1072" />
      <stop
         offset="1"
         style="stop-color:#3c3c3c"
         id="stop1074" />
    </radialGradient>
  </defs>
  <path
     style="fill:url(#linear0)"
     d="M 3.742188 18.097656 L 18.257812 18.097656 L 18.257812 21.761719 L 3.742188 21.761719 Z "
     id="path1076" />
  <path
     style="fill:url(#radial0)"
     d="M 18.257812 18.097656 C 18.257812 18.097656 18.257812 21.761719 18.257812 21.761719 C 19.804688 21.769531 22 20.941406 22 19.929688 C 22 18.917969 20.273438 18.097656 18.257812 18.097656 Z "
     id="path1078" />
  <path
     style="fill:url(#radial1)"
     d="M 3.742188 18.097656 C 3.742188 18.097656 3.742188 21.761719 3.742188 21.761719 C 2.195312 21.769531 0 20.941406 0 19.929688 C 0 18.917969 1.726562 18.097656 3.742188 18.097656 Z "
     id="path1080" />
  <g
     style="stroke-linecap:round"
     id="g1082">
    <path
       style="fill:url(#radial2);stroke:#282828;stroke-linejoin:round"
       d="M 3.315341 8.497159 L 44.684659 8.497159 C 45.136364 8.497159 45.502841 8.863636 45.502841 9.315341 L 45.502841 43.678977 C 45.502841 44.130682 45.136364 44.497159 44.684659 44.497159 L 3.315341 44.497159 C 2.863636 44.497159 2.497159 44.130682 2.497159 43.678977 L 2.497159 9.315341 C 2.497159 8.863636 2.863636 8.497159 3.315341 8.497159 Z "
       transform="scale(.45833)"
       id="path1084" />
    <path
       style="fill:none;stroke:url(#radial3)"
       d="M 3.502841 9.502841 L 44.497159 9.502841 L 44.497159 43.5 L 3.502841 43.5 Z "
       transform="scale(.45833)"
       id="path1086" />
  </g>
  <path
     style="fill:url(#linear1)"
     d="M 2.75 5.042969 C 2.496094 5.042969 2.292969 5.246094 2.292969 5.5 L 2.292969 10.542969 L 2.75 10.542969 L 2.75 18.792969 C 2.75 19.007812 2.992188 19.25 3.207031 19.25 L 18.792969 19.25 C 19.007812 19.25 19.25 19.007812 19.25 18.792969 L 19.25 10.542969 L 19.707031 10.542969 L 19.707031 5.5 C 19.707031 5.246094 19.503906 5.042969 19.25 5.042969 Z "
     id="path1088" />
  <path
     style="fill:#fff"
     d="M 3.207031 10.082031 L 3.207031 17.875 C 3.207031 18.089844 3.449219 18.332031 3.667969 18.332031 L 18.332031 18.332031 C 18.550781 18.332031 18.792969 18.089844 18.792969 17.875 L 18.792969 10.082031 "
     id="path1090" />
  <path
     style="fill:url(#linear2)"
     d="M 3.207031 10.542969 L 3.207031 5.921875 C 3.207031 5.722656 3.449219 5.5 3.667969 5.5 L 18.332031 5.5 C 18.550781 5.5 18.792969 5.722656 18.792969 5.921875 L 18.792969 10.542969 "
     id="path1092" />
  <path
     style="fill:#fff;stroke:#ba5d12;stroke-linejoin:round;stroke-width:.784"
     d="M 58.075843 30.99986 L 63.999826 23.999891 L 69.92381 30.99986 Z "
     transform="matrix(.29013 0 0 .29464 -7.56854 -.54018)"
     id="path1094" />
  <g
     style="fill:#282828"
     id="g1096">
    <path
       d="M 10.988281 15.90625 L 11.867188 16.195312 C 11.808594 16.464844 11.714844 16.691406 11.585938 16.871094 C 11.460938 17.050781 11.300781 17.1875 11.113281 17.277344 C 10.925781 17.371094 10.6875 17.417969 10.394531 17.417969 C 10.042969 17.417969 9.753906 17.359375 9.53125 17.25 C 9.308594 17.136719 9.113281 16.941406 8.953125 16.65625 C 8.789062 16.375 8.707031 16.015625 8.707031 15.574219 C 8.707031 14.988281 8.851562 14.539062 9.136719 14.222656 C 9.421875 13.90625 9.828125 13.75 10.347656 13.75 C 10.757812 13.75 11.078125 13.839844 11.3125 14.019531 C 11.546875 14.199219 11.722656 14.476562 11.835938 14.851562 L 10.949219 15.066406 C 10.917969 14.960938 10.886719 14.878906 10.851562 14.832031 C 10.796875 14.746094 10.726562 14.683594 10.644531 14.636719 C 10.566406 14.59375 10.472656 14.570312 10.375 14.570312 C 10.144531 14.570312 9.972656 14.667969 9.851562 14.867188 C 9.757812 15.015625 9.714844 15.25 9.714844 15.566406 C 9.714844 15.960938 9.769531 16.230469 9.878906 16.378906 C 9.988281 16.523438 10.140625 16.59375 10.339844 16.59375 C 10.53125 16.59375 10.675781 16.535156 10.773438 16.417969 C 10.871094 16.300781 10.941406 16.128906 10.988281 15.90625 "
       id="path1098" />
    <path
       d="M 12.355469 13.808594 L 14.835938 13.808594 L 14.835938 14.570312 L 13.363281 14.570312 L 13.363281 15.191406 L 14.621094 15.191406 L 14.621094 15.90625 L 13.363281 15.90625 L 13.363281 17.355469 L 12.355469 17.355469 L 12.355469 13.808594 "
       id="path1100" />
    <path
       d="M 17.875 17.355469 L 15.167969 17.355469 C 15.199219 17.0625 15.292969 16.789062 15.449219 16.53125 C 15.609375 16.273438 15.902344 15.96875 16.335938 15.621094 C 16.601562 15.40625 16.769531 15.242188 16.84375 15.132812 C 16.917969 15.019531 16.953125 14.914062 16.953125 14.816406 C 16.953125 14.707031 16.917969 14.617188 16.84375 14.539062 C 16.769531 14.464844 16.679688 14.425781 16.570312 14.425781 C 16.453125 14.425781 16.359375 14.464844 16.285156 14.542969 C 16.210938 14.621094 16.164062 14.761719 16.140625 14.960938 L 15.234375 14.882812 C 15.269531 14.605469 15.335938 14.386719 15.429688 14.234375 C 15.523438 14.078125 15.65625 13.957031 15.828125 13.875 C 16 13.792969 16.238281 13.75 16.542969 13.75 C 16.863281 13.75 17.109375 13.789062 17.285156 13.867188 C 17.460938 13.949219 17.601562 14.070312 17.699219 14.234375 C 17.800781 14.394531 17.851562 14.578125 17.851562 14.78125 C 17.851562 14.996094 17.792969 15.203125 17.679688 15.402344 C 17.5625 15.597656 17.351562 15.8125 17.046875 16.046875 C 16.863281 16.183594 16.742188 16.28125 16.679688 16.335938 C 16.621094 16.390625 16.550781 16.460938 16.464844 16.550781 L 17.875 16.550781 L 17.875 17.355469 "
       id="path1102" />
  </g>
</svg>

<svg xmlns="http://www.w3.org/2000/svg" viewBox="0 0 22 22" xmlns:xlink="http://www.w3.org/1999/xlink">
 <defs>
  <linearGradient gradientTransform="scale(.45833)" id="linear1" y1="11" y2="42" gradientUnits="userSpaceOnUse" x2="0">
   <stop style="stop-color:#e5e5e5"/>
   <stop offset="1" style="stop-color:#aaa"/>
  </linearGradient>
  <linearGradient gradientTransform="matrix(.45833 0 0 .45833 0 .91667)" id="linear2" y1="3.656" y2="21" gradientUnits="userSpaceOnUse" x2="0">
   <stop style="stop-color:#ecd562"/>
   <stop offset="1" style="stop-color:#df8122"/>
  </linearGradient>
  <linearGradient gradientTransform="matrix(.03006 0 0 .01509 .13538 12.56181)" id="linear0" y1="366.65" y2="609.5" gradientUnits="userSpaceOnUse" x2="0">
   <stop style="stop-color:#000;stop-opacity:0"/>
   <stop offset="0.5" style="stop-color:#000;stop-opacity:0.404"/>
   <stop offset="1" style="stop-color:#000;stop-opacity:0"/>
  </linearGradient>
  <radialGradient cx="605.71" cy="486.65" gradientTransform="matrix(.03006 0 0 .01509 .1413 12.56181)" id="radial0" r="117.14" gradientUnits="userSpaceOnUse">
   <stop style="stop-color:#000;stop-opacity:0.404"/>
   <stop offset="1" style="stop-color:#000;stop-opacity:0"/>
  </radialGradient>
  <radialGradient cx="5" cy="7.1" gradientTransform="matrix(2.28528 .06529 -.04762 1.66667 -6.08829 -.1598)" id="radial3" r="21" gradientUnits="userSpaceOnUse">
   <stop style="stop-color:#fff;stop-opacity:0.4"/>
   <stop offset="1" style="stop-color:#fff;stop-opacity:0"/>
  </radialGradient>
  <radialGradient cx="605.71" cy="486.65" gradientTransform="matrix(-.03006 0 0 .01509 21.85892 12.56181)" id="radial1" r="117.14" gradientUnits="userSpaceOnUse" xlink:href="#radial0"/>
  <radialGradient cx="9" cy="19.15" gradientTransform="matrix(1.90909 0 0 1.40909 -8.18182 -4.98219)" id="radial2" r="22" gradientUnits="userSpaceOnUse">
   <stop style="stop-color:#787878"/>
   <stop offset="1" style="stop-color:#3c3c3c"/>
  </radialGradient>
 </defs>
 <path d="m 3.742 18.1 l 14.516 0 l 0 3.664 l -14.516 0 Z" style="fill:url(#linear0)"/>
 <path d="m 18.258 18.1 c 0 0 0 3.664 0 3.664 c 1.547 0.008 3.742 -0.82 3.742 -1.832 c 0 -1.012 -1.727 -1.832 -3.742 -1.832 Z" style="fill:url(#radial0)"/>
 <path d="m 3.742 18.1 c 0 0 0 3.664 0 3.664 c -1.547 0.008 -3.742 -0.82 -3.742 -1.832 c 0 -1.012 1.727 -1.832 3.742 -1.832 Z" style="fill:url(#radial1)"/>
 <g style="stroke-linecap:round">
  <path d="m 3.315 8.497 l 41.37 0 c 0.452 0 0.818 0.366 0.818 0.818 l 0 34.36 c 0 0.452 -0.366 0.818 -0.818 0.818 l -41.37 0 c -0.452 0 -0.818 -0.366 -0.818 -0.818 l 0 -34.36 c 0 -0.452 0.366 -0.818 0.818 -0.818 Z" transform="scale(.45833)" style="fill:url(#radial2);stroke:#282828;stroke-linejoin:round"/>
  <path d="m 3.503 9.503 l 40.994 0 l 0 33.997 l -40.994 0 Z" transform="scale(.45833)" style="fill:none;stroke:url(#radial3)"/>
 </g>
 <path d="m 2.75 5.04 c -0.254 0 -0.457 0.203 -0.457 0.457 l 0 5.04 l 0.457 0 l 0 8.25 c 0 0.215 0.242 0.457 0.457 0.457 l 15.586 0 c 0.215 0 0.457 -0.242 0.457 -0.457 l 0 -8.25 l 0.457 0 l 0 -5.04 c 0 -0.254 -0.203 -0.457 -0.457 -0.457 Z" style="fill:url(#linear1)"/>
 <path d="m 3.207 10.08 l 0 7.793 c 0 0.215 0.242 0.457 0.461 0.457 l 14.664 0 c 0.219 0 0.461 -0.242 0.461 -0.457 l 0 -7.793" style="fill:#fff"/>
 <path d="m 3.207 10.543 l 0 -4.621 c 0 -0.199 0.242 -0.422 0.461 -0.422 l 14.664 0 c 0.219 0 0.461 0.223 0.461 0.422 l 0 4.621" style="fill:url(#linear2)"/>
 <path d="m 58.08 31 l 5.924 -7 l 5.924 7 Z" transform="matrix(.29013 0 0 .29464 -7.56854 -.54018)" style="fill:#fff;stroke:#ba5d12;stroke-linejoin:round;stroke-width:0.784"/>
 <g style="fill:#282828">
  <path d="m 10.988 15.906 l 0.879 0.289 c -0.059 0.27 -0.152 0.496 -0.281 0.676 c -0.125 0.18 -0.285 0.316 -0.473 0.406 c -0.188 0.094 -0.426 0.141 -0.719 0.141 c -0.352 0 -0.641 -0.059 -0.863 -0.168 c -0.223 -0.113 -0.418 -0.309 -0.578 -0.594 c -0.164 -0.281 -0.246 -0.641 -0.246 -1.082 c 0 -0.586 0.145 -1.035 0.43 -1.352 c 0.285 -0.316 0.691 -0.473 1.211 -0.473 c 0.41 0 0.73 0.09 0.965 0.27 c 0.234 0.18 0.41 0.457 0.523 0.832 l -0.887 0.215 c -0.031 -0.105 -0.063 -0.188 -0.098 -0.234 c -0.055 -0.086 -0.125 -0.148 -0.207 -0.195 c -0.078 -0.043 -0.172 -0.066 -0.27 -0.066 c -0.23 0 -0.402 0.098 -0.523 0.297 c -0.094 0.148 -0.137 0.383 -0.137 0.699 c 0 0.395 0.055 0.664 0.164 0.813 c 0.109 0.145 0.262 0.215 0.461 0.215 c 0.191 0 0.336 -0.059 0.434 -0.176 c 0.098 -0.117 0.168 -0.289 0.215 -0.512"/>
  <path d="m 12.355 13.809 l 2.48 0 l 0 0.762 l -1.473 0 l 0 0.621 l 1.258 0 l 0 0.715 l -1.258 0 l 0 1.449 l -1.01 0 l 0 -3.547"/>
  <path d="m 17.875 17.355 l -2.707 0 c 0.031 -0.293 0.125 -0.566 0.281 -0.824 c 0.16 -0.258 0.453 -0.563 0.887 -0.91 c 0.266 -0.215 0.434 -0.379 0.508 -0.488 c 0.074 -0.113 0.109 -0.219 0.109 -0.316 c 0 -0.109 -0.035 -0.199 -0.109 -0.277 c -0.074 -0.074 -0.164 -0.113 -0.273 -0.113 c -0.117 0 -0.211 0.039 -0.285 0.117 c -0.074 0.078 -0.121 0.219 -0.145 0.418 l -0.906 -0.078 c 0.035 -0.277 0.102 -0.496 0.195 -0.648 c 0.094 -0.156 0.227 -0.277 0.398 -0.359 c 0.172 -0.082 0.41 -0.125 0.715 -0.125 c 0.32 0 0.566 0.039 0.742 0.117 c 0.176 0.082 0.316 0.203 0.414 0.367 c 0.102 0.16 0.152 0.344 0.152 0.547 c 0 0.215 -0.059 0.422 -0.172 0.621 c -0.117 0.195 -0.328 0.41 -0.633 0.645 c -0.184 0.137 -0.305 0.234 -0.367 0.289 c -0.059 0.055 -0.129 0.125 -0.215 0.215 l 1.41 0 l 0 0.805"/>
 </g>
</svg>
